;FLAVOR:Marlin
;TIME:3856
;Filament used: 2.76785m
;Layer height: 0.2
;MINX:62.7
;MINY:78.2
;MINZ:0.2
;MAXX:157.3
;MAXY:139.8
;MAXZ:2
;Generated with Cura_SteamEngine 4.4.1
M140 S60
M105
M190 S60
M104 S200
M105
M109 S200
M82 ;absolute extrusion mode
M201 X500.00 Y500.00 Z100.00 E5000.00 ;Setup machine max acceleration
M203 X500.00 Y500.00 Z10.00 E50.00 ;Setup machine max feedrate
M204 P500.00 R1000.00 T500.00 ;Setup Print/Retract/Travel acceleration
M205 X8.00 Y8.00 Z0.40 E5.00 ;Setup Jerk
M220 S100 ;Reset Feedrate
M221 S100 ;Reset Flowrate

G28 ;Home

G92 E0 ;Reset Extruder
G1 Z2.0 F3000 ;Move Z Axis up
G1 X10.1 Y20 Z0.28 F5000.0 ;Move to start position
G1 X10.1 Y200.0 Z0.28 F1500.0 E15 ;Draw the first line
G1 X10.4 Y200.0 Z0.28 F5000.0 ;Move to side a little
G1 X10.4 Y20 Z0.28 F1500.0 E30 ;Draw the second line
G92 E0 ;Reset Extruder
G1 Z2.0 F3000 ;Move Z Axis up

G92 E0
G92 E0
G1 F1500 E-6.5
;LAYER_COUNT:10
;LAYER:0
M107
G0 F6000 X65.688 Y79.955 Z0.2
;TYPE:SKIRT
G1 F1500 E0
G1 F1200 X66.324 Y79.488 E0.02624
G1 X67.004 Y79.087 E0.0525
G1 X67.722 Y78.757 E0.07878
G1 X68.469 Y78.502 E0.10504
G1 X69.238 Y78.323 E0.1313
G1 X70.022 Y78.223 E0.15758
G1 X70.617 Y78.2 E0.17739
G1 X149.383 Y78.2 E2.79716
G1 X150.172 Y78.24 E2.82343
G1 X150.952 Y78.359 E2.84967
G1 X151.717 Y78.557 E2.87596
G1 X152.457 Y78.831 E2.9022
G1 X153.166 Y79.179 E2.92847
G1 X153.837 Y79.597 E2.95477
G1 X154.461 Y80.08 E2.98101
G1 X154.898 Y80.485 E3.00083
G1 X155.015 Y80.602 E3.00633
G1 X155.545 Y81.188 E3.03261
G1 X156.012 Y81.824 E3.05885
G1 X156.413 Y82.504 E3.08511
G1 X156.743 Y83.222 E3.11139
G1 X156.998 Y83.969 E3.13765
G1 X157.177 Y84.738 E3.16391
G1 X157.277 Y85.522 E3.19019
G1 X157.3 Y86.117 E3.21
G1 X157.3 Y131.883 E4.73218
G1 X157.26 Y132.672 E4.75846
G1 X157.141 Y133.452 E4.7847
G1 X156.943 Y134.217 E4.81098
G1 X156.669 Y134.957 E4.83723
G1 X156.321 Y135.666 E4.8635
G1 X155.903 Y136.337 E4.88979
G1 X155.42 Y136.961 E4.91604
G1 X155.015 Y137.398 E4.93585
G1 X154.898 Y137.515 E4.94136
G1 X154.312 Y138.045 E4.96764
G1 X153.676 Y138.512 E4.99388
G1 X152.996 Y138.913 E5.02014
G1 X152.278 Y139.243 E5.04642
G1 X151.531 Y139.498 E5.07267
G1 X150.762 Y139.677 E5.09893
G1 X149.978 Y139.777 E5.12522
G1 X149.383 Y139.8 E5.14502
G1 X70.617 Y139.8 E7.76479
G1 X69.828 Y139.76 E7.79107
G1 X69.048 Y139.641 E7.81731
G1 X68.283 Y139.443 E7.84359
G1 X67.543 Y139.169 E7.86984
G1 X66.834 Y138.821 E7.89611
G1 X66.163 Y138.403 E7.9224
G1 X65.539 Y137.92 E7.94865
G1 X65.102 Y137.515 E7.96846
G1 X64.985 Y137.398 E7.97397
G1 X64.455 Y136.812 E8.00025
G1 X63.988 Y136.176 E8.02649
G1 X63.587 Y135.496 E8.05275
G1 X63.257 Y134.778 E8.07903
G1 X63.002 Y134.031 E8.10528
G1 X62.823 Y133.262 E8.13154
G1 X62.723 Y132.478 E8.15783
G1 X62.7 Y131.883 E8.17764
G1 X62.7 Y86.117 E9.69982
G1 X62.74 Y85.328 E9.72609
G1 X62.859 Y84.548 E9.75234
G1 X63.057 Y83.783 E9.77862
G1 X63.331 Y83.043 E9.80487
G1 X63.679 Y82.334 E9.83113
G1 X64.097 Y81.663 E9.85743
G1 X64.58 Y81.039 E9.88367
G1 X64.985 Y80.602 E9.90349
G1 X65.102 Y80.485 E9.90899
G1 X65.688 Y79.955 E9.93527
G0 F6000 X65.956 Y80.253
G1 F1200 X66.578 Y79.8 E9.96087
G1 X67.243 Y79.414 E9.98644
G1 X67.945 Y79.099 E10.01203
G1 X68.676 Y78.859 E10.03762
G1 X69.427 Y78.696 E10.06318
G1 X70.192 Y78.612 E10.08878
G1 X70.617 Y78.6 E10.10292
G1 X149.383 Y78.6 E12.72269
G1 X150.151 Y78.64 E12.74827
G1 X150.911 Y78.759 E12.77385
G1 X151.654 Y78.957 E12.79943
G1 X152.373 Y79.231 E12.82502
G1 X153.059 Y79.578 E12.85059
G1 X153.706 Y79.994 E12.87617
G1 X154.306 Y80.475 E12.90175
G1 X154.616 Y80.767 E12.91591
G1 X154.733 Y80.884 E12.92142
G1 X155.247 Y81.456 E12.94699
G1 X155.7 Y82.078 E12.97259
G1 X156.086 Y82.743 E12.99816
G1 X156.401 Y83.445 E13.02375
G1 X156.641 Y84.176 E13.04934
G1 X156.804 Y84.927 E13.0749
G1 X156.888 Y85.692 E13.1005
G1 X156.9 Y86.117 E13.11464
G1 X156.9 Y131.883 E14.63682
G1 X156.86 Y132.651 E14.6624
G1 X156.741 Y133.411 E14.68799
G1 X156.543 Y134.154 E14.71356
G1 X156.269 Y134.873 E14.73915
G1 X155.922 Y135.559 E14.76472
G1 X155.506 Y136.206 E14.79031
G1 X155.025 Y136.806 E14.81588
G1 X154.733 Y137.116 E14.83005
G1 X154.616 Y137.233 E14.83555
G1 X154.044 Y137.747 E14.86113
G1 X153.422 Y138.2 E14.88672
G1 X152.757 Y138.586 E14.9123
G1 X152.055 Y138.901 E14.93789
G1 X151.324 Y139.141 E14.96348
G1 X150.573 Y139.304 E14.98904
G1 X149.808 Y139.388 E15.01463
G1 X149.383 Y139.4 E15.02878
G1 X70.617 Y139.4 E17.64854
G1 X69.849 Y139.36 E17.67412
G1 X69.089 Y139.241 E17.69971
G1 X68.346 Y139.043 E17.72528
G1 X67.627 Y138.769 E17.75087
G1 X66.941 Y138.422 E17.77644
G1 X66.294 Y138.006 E17.80203
G1 X65.694 Y137.525 E17.8276
G1 X65.384 Y137.233 E17.84177
G1 X65.267 Y137.116 E17.84727
G1 X64.753 Y136.544 E17.87285
G1 X64.3 Y135.922 E17.89844
G1 X63.914 Y135.257 E17.92402
G1 X63.599 Y134.555 E17.94961
G1 X63.359 Y133.824 E17.9752
G1 X63.196 Y133.073 E18.00076
G1 X63.112 Y132.308 E18.02635
G1 X63.1 Y131.883 E18.0405
G1 X63.1 Y86.117 E19.56268
G1 X63.14 Y85.349 E19.58826
G1 X63.259 Y84.589 E19.61384
G1 X63.457 Y83.846 E19.63942
G1 X63.731 Y83.127 E19.66501
G1 X64.078 Y82.441 E19.69058
G1 X64.494 Y81.794 E19.71616
G1 X64.975 Y81.194 E19.74174
G1 X65.267 Y80.884 E19.7559
G1 X65.384 Y80.767 E19.76141
G1 X65.956 Y80.253 E19.78698
G0 F6000 X66.224 Y80.55
G1 F1200 X66.83 Y80.113 E19.81183
G1 X67.48 Y79.742 E19.83673
G1 X68.166 Y79.443 E19.86162
G1 X68.88 Y79.219 E19.88651
G1 X69.613 Y79.072 E19.91137
G1 X70.617 Y79 E19.94485
G1 X149.383 Y79 E22.56462
G1 X150.13 Y79.04 E22.5895
G1 X150.868 Y79.159 E22.61436
G1 X151.59 Y79.357 E22.63926
G1 X152.286 Y79.63 E22.66413
G1 X152.949 Y79.977 E22.68902
G1 X153.572 Y80.392 E22.71391
G1 X154.333 Y81.05 E22.74737
G1 X154.45 Y81.167 E22.75288
G1 X154.95 Y81.724 E22.77777
G1 X155.387 Y82.33 E22.80262
G1 X155.758 Y82.98 E22.82752
G1 X156.057 Y83.666 E22.85241
G1 X156.281 Y84.38 E22.87729
G1 X156.428 Y85.113 E22.90216
G1 X156.5 Y86.117 E22.93564
G1 X156.5 Y131.883 E24.45782
G1 X156.46 Y132.63 E24.4827
G1 X156.341 Y133.368 E24.50757
G1 X156.143 Y134.09 E24.53247
G1 X155.87 Y134.786 E24.55733
G1 X155.523 Y135.449 E24.58222
G1 X155.108 Y136.072 E24.60712
G1 X154.45 Y136.833 E24.64058
G1 X154.333 Y136.95 E24.64608
G1 X153.776 Y137.45 E24.67098
G1 X153.17 Y137.887 E24.69583
G1 X152.52 Y138.258 E24.72072
G1 X151.834 Y138.557 E24.74561
G1 X151.12 Y138.781 E24.7705
G1 X150.387 Y138.928 E24.79536
G1 X149.383 Y139 E24.82884
G1 X70.617 Y139 E27.44861
G1 X69.87 Y138.96 E27.47349
G1 X69.132 Y138.841 E27.49835
G1 X68.41 Y138.643 E27.52325
G1 X67.714 Y138.37 E27.54812
G1 X67.051 Y138.023 E27.57301
G1 X66.428 Y137.608 E27.59791
G1 X65.667 Y136.95 E27.63137
G1 X65.55 Y136.833 E27.63687
G1 X65.05 Y136.276 E27.66177
G1 X64.613 Y135.67 E27.68662
G1 X64.242 Y135.02 E27.71151
G1 X63.943 Y134.334 E27.7364
G1 X63.719 Y133.62 E27.76129
G1 X63.572 Y132.887 E27.78615
G1 X63.5 Y131.883 E27.81963
G1 X63.5 Y86.117 E29.34181
G1 X63.54 Y85.37 E29.3667
G1 X63.659 Y84.632 E29.39156
G1 X63.857 Y83.91 E29.41646
G1 X64.13 Y83.214 E29.44133
G1 X64.477 Y82.551 E29.46621
G1 X64.892 Y81.928 E29.49111
G1 X65.55 Y81.167 E29.52457
G1 X65.667 Y81.05 E29.53008
G1 X66.224 Y80.55 E29.55497
G0 F6000 X66.491 Y80.849
G1 F1200 X67.082 Y80.426 E29.57914
G1 X67.716 Y80.072 E29.60329
G1 X68.385 Y79.789 E29.62745
G1 X69.081 Y79.581 E29.65162
G1 X69.796 Y79.451 E29.67579
G1 X70.617 Y79.4 E29.70315
G1 X149.383 Y79.4 E32.32291
G1 X150.108 Y79.44 E32.34706
G1 X150.825 Y79.559 E32.37124
G1 X151.524 Y79.757 E32.3954
G1 X152.197 Y80.03 E32.41956
G1 X152.836 Y80.375 E32.44371
G1 X153.433 Y80.789 E32.46787
G1 X154.05 Y81.333 E32.49523
G1 X154.167 Y81.45 E32.50074
G1 X154.651 Y81.991 E32.52488
G1 X155.074 Y82.582 E32.54905
G1 X155.428 Y83.216 E32.5732
G1 X155.711 Y83.885 E32.59736
G1 X155.919 Y84.581 E32.62152
G1 X156.049 Y85.296 E32.64569
G1 X156.1 Y86.117 E32.67305
G1 X156.1 Y131.883 E34.19524
G1 X156.06 Y132.608 E34.21939
G1 X155.941 Y133.325 E34.24356
G1 X155.743 Y134.024 E34.26773
G1 X155.47 Y134.697 E34.29188
G1 X155.125 Y135.336 E34.31603
G1 X154.711 Y135.933 E34.3402
G1 X154.167 Y136.55 E34.36756
G1 X154.05 Y136.667 E34.37306
G1 X153.509 Y137.151 E34.3972
G1 X152.918 Y137.574 E34.42138
G1 X152.284 Y137.928 E34.44553
G1 X151.615 Y138.211 E34.46969
G1 X150.919 Y138.419 E34.49385
G1 X150.204 Y138.549 E34.51802
G1 X149.383 Y138.6 E34.54538
G1 X70.617 Y138.6 E37.16515
G1 X69.892 Y138.56 E37.1893
G1 X69.175 Y138.441 E37.21347
G1 X68.476 Y138.243 E37.23763
G1 X67.803 Y137.97 E37.26179
G1 X67.164 Y137.625 E37.28594
G1 X66.567 Y137.211 E37.31011
G1 X65.95 Y136.667 E37.33746
G1 X65.833 Y136.55 E37.34297
G1 X65.349 Y136.009 E37.36711
G1 X64.926 Y135.418 E37.39128
G1 X64.572 Y134.784 E37.41544
G1 X64.289 Y134.115 E37.4396
G1 X64.081 Y133.419 E37.46376
G1 X63.951 Y132.704 E37.48793
G1 X63.9 Y131.883 E37.51529
G1 X63.9 Y86.117 E39.03747
G1 X63.94 Y85.392 E39.06162
G1 X64.059 Y84.675 E39.08579
G1 X64.257 Y83.976 E39.10996
G1 X64.53 Y83.303 E39.13411
G1 X64.875 Y82.664 E39.15827
G1 X65.289 Y82.067 E39.18243
G1 X65.833 Y81.45 E39.20979
G1 X65.95 Y81.333 E39.21529
G1 X66.491 Y80.849 E39.23944
G0 F6000 X66.758 Y81.147
G1 F1200 X67.333 Y80.741 E39.26285
G1 X67.951 Y80.403 E39.28627
G1 X68.602 Y80.136 E39.30968
G1 X69.28 Y79.946 E39.3331
G1 X69.975 Y79.833 E39.35652
G1 X70.617 Y79.8 E39.3779
G1 X149.383 Y79.8 E41.99767
G1 X150.086 Y79.84 E42.02108
G1 X150.78 Y79.959 E42.0445
G1 X151.455 Y80.157 E42.0679
G1 X152.104 Y80.429 E42.09131
G1 X152.718 Y80.774 E42.11473
G1 X153.289 Y81.185 E42.13813
G1 X153.767 Y81.616 E42.15954
G1 X153.884 Y81.733 E42.16504
G1 X154.353 Y82.258 E42.18845
G1 X154.759 Y82.833 E42.21187
G1 X155.097 Y83.451 E42.23529
G1 X155.364 Y84.102 E42.2587
G1 X155.554 Y84.78 E42.28212
G1 X155.667 Y85.475 E42.30554
G1 X155.7 Y86.117 E42.32692
G1 X155.7 Y131.883 E43.8491
G1 X155.66 Y132.586 E43.87252
G1 X155.541 Y133.28 E43.89594
G1 X155.343 Y133.955 E43.91934
G1 X155.071 Y134.604 E43.94274
G1 X154.726 Y135.218 E43.96617
G1 X154.315 Y135.789 E43.98956
G1 X153.884 Y136.267 E44.01097
G1 X153.767 Y136.384 E44.01648
G1 X153.242 Y136.853 E44.03989
G1 X152.667 Y137.259 E44.0633
G1 X152.049 Y137.597 E44.08673
G1 X151.398 Y137.864 E44.11013
G1 X150.72 Y138.054 E44.13355
G1 X150.025 Y138.167 E44.15697
G1 X149.383 Y138.2 E44.17835
G1 X70.617 Y138.2 E46.79812
G1 X69.914 Y138.16 E46.82154
G1 X69.22 Y138.041 E46.84496
G1 X68.545 Y137.843 E46.86835
G1 X67.896 Y137.571 E46.89176
G1 X67.282 Y137.226 E46.91518
G1 X66.711 Y136.815 E46.93858
G1 X66.233 Y136.384 E46.95999
G1 X66.116 Y136.267 E46.96549
G1 X65.647 Y135.742 E46.98891
G1 X65.241 Y135.167 E47.01232
G1 X64.903 Y134.549 E47.03575
G1 X64.636 Y133.898 E47.05915
G1 X64.446 Y133.22 E47.08257
G1 X64.333 Y132.525 E47.10599
G1 X64.3 Y131.883 E47.12737
G1 X64.3 Y86.117 E48.64955
G1 X64.34 Y85.414 E48.67297
G1 X64.459 Y84.72 E48.69639
G1 X64.657 Y84.045 E48.71979
G1 X64.929 Y83.396 E48.74319
G1 X65.274 Y82.782 E48.76662
G1 X65.685 Y82.211 E48.79002
G1 X66.116 Y81.733 E48.81143
G1 X66.233 Y81.616 E48.81693
G1 X66.758 Y81.147 E48.84034
G0 F6000 X67.025 Y81.446
G1 F1200 X67.583 Y81.057 E48.86297
G1 X68.183 Y80.735 E48.88562
G1 X68.817 Y80.486 E48.90827
G1 X69.476 Y80.313 E48.93093
G1 X70.15 Y80.219 E48.95357
G1 X70.617 Y80.2 E48.96911
G1 X149.383 Y80.2 E51.58888
G1 X150.063 Y80.24 E51.61154
G1 X150.733 Y80.359 E51.63417
G1 X151.385 Y80.556 E51.65682
G1 X152.009 Y80.828 E51.67946
G1 X152.597 Y81.172 E51.70212
G1 X153.141 Y81.582 E51.72478
G1 X153.484 Y81.899 E51.74031
G1 X153.601 Y82.016 E51.74582
G1 X154.054 Y82.525 E51.76848
G1 X154.443 Y83.083 E51.7911
G1 X154.765 Y83.683 E51.81375
G1 X155.014 Y84.317 E51.83641
G1 X155.187 Y84.976 E51.85907
G1 X155.281 Y85.65 E51.8817
G1 X155.3 Y86.117 E51.89725
G1 X155.3 Y131.883 E53.41943
G1 X155.26 Y132.563 E53.44209
G1 X155.141 Y133.233 E53.46472
G1 X154.944 Y133.885 E53.48737
G1 X154.672 Y134.509 E53.51001
G1 X154.328 Y135.097 E53.53267
G1 X153.918 Y135.641 E53.55533
G1 X153.601 Y135.984 E53.57086
G1 X153.484 Y136.101 E53.57636
G1 X152.975 Y136.554 E53.59903
G1 X152.417 Y136.943 E53.62165
G1 X151.817 Y137.265 E53.6443
G1 X151.183 Y137.514 E53.66696
G1 X150.524 Y137.687 E53.68962
G1 X149.85 Y137.781 E53.71225
G1 X149.383 Y137.8 E53.7278
G1 X70.617 Y137.8 E56.34756
G1 X69.937 Y137.76 E56.37022
G1 X69.267 Y137.641 E56.39285
G1 X68.615 Y137.444 E56.41551
G1 X67.991 Y137.172 E56.43815
G1 X67.403 Y136.828 E56.4608
G1 X66.859 Y136.418 E56.48346
G1 X66.516 Y136.101 E56.499
G1 X66.399 Y135.984 E56.5045
G1 X65.946 Y135.475 E56.52716
G1 X65.557 Y134.917 E56.54979
G1 X65.235 Y134.317 E56.57243
G1 X64.986 Y133.683 E56.59509
G1 X64.813 Y133.024 E56.61775
G1 X64.719 Y132.35 E56.64038
G1 X64.7 Y131.883 E56.65593
G1 X64.7 Y86.117 E58.17811
G1 X64.74 Y85.437 E58.20077
G1 X64.859 Y84.767 E58.2234
G1 X65.056 Y84.115 E58.24606
G1 X65.328 Y83.491 E58.2687
G1 X65.672 Y82.903 E58.29135
G1 X66.082 Y82.359 E58.31401
G1 X66.399 Y82.016 E58.32955
G1 X66.516 Y81.899 E58.33505
G1 X67.025 Y81.446 E58.35771
G0 F6000 X67.291 Y81.746
G1 F1200 X67.832 Y81.374 E58.37955
G1 X68.414 Y81.07 E58.40139
G1 X69.029 Y80.839 E58.42324
G1 X69.668 Y80.684 E58.44511
G1 X70.617 Y80.6 E58.4768
G1 X149.383 Y80.6 E61.09656
G1 X150.039 Y80.64 E61.11842
G1 X150.685 Y80.759 E61.14027
G1 X151.312 Y80.956 E61.16213
G1 X151.91 Y81.228 E61.18398
G1 X152.471 Y81.57 E61.20583
G1 X153.201 Y82.182 E61.23752
G1 X153.318 Y82.299 E61.24302
G1 X153.754 Y82.791 E61.26488
G1 X154.126 Y83.332 E61.28672
G1 X154.43 Y83.914 E61.30856
G1 X154.661 Y84.529 E61.33041
G1 X154.816 Y85.168 E61.35228
G1 X154.9 Y86.117 E61.38397
G1 X154.9 Y131.883 E62.90615
G1 X154.86 Y132.539 E62.92801
G1 X154.741 Y133.185 E62.94986
G1 X154.544 Y133.812 E62.97172
G1 X154.272 Y134.41 E62.99357
G1 X153.93 Y134.971 E63.01542
G1 X153.318 Y135.701 E63.0471
G1 X153.201 Y135.818 E63.05261
G1 X152.709 Y136.254 E63.07447
G1 X152.168 Y136.626 E63.09631
G1 X151.586 Y136.93 E63.11815
G1 X150.971 Y137.161 E63.14
G1 X150.332 Y137.316 E63.16187
G1 X149.383 Y137.4 E63.19355
G1 X70.617 Y137.4 E65.81332
G1 X69.961 Y137.36 E65.83518
G1 X69.315 Y137.241 E65.85703
G1 X68.688 Y137.044 E65.87889
G1 X68.09 Y136.772 E65.90074
G1 X67.529 Y136.43 E65.92259
G1 X66.799 Y135.818 E65.95428
G1 X66.682 Y135.701 E65.95978
G1 X66.246 Y135.209 E65.98164
G1 X65.874 Y134.668 E66.00348
G1 X65.57 Y134.086 E66.02532
G1 X65.339 Y133.471 E66.04717
G1 X65.184 Y132.832 E66.06904
G1 X65.1 Y131.883 E66.10073
G1 X65.1 Y86.117 E67.62291
G1 X65.14 Y85.461 E67.64477
G1 X65.259 Y84.815 E67.66662
G1 X65.456 Y84.188 E67.68848
G1 X65.728 Y83.59 E67.71033
G1 X66.07 Y83.029 E67.73218
G1 X66.682 Y82.299 E67.76386
G1 X66.799 Y82.182 E67.76937
G1 X67.291 Y81.746 E67.79123
G0 F6000 X67.556 Y82.047
G1 F1200 X68.079 Y81.692 E67.81225
G1 X68.643 Y81.406 E67.83329
G1 X69.238 Y81.194 E67.8543
G1 X69.856 Y81.058 E67.87534
G1 X70.617 Y81 E67.90073
G1 X149.383 Y81 E70.52049
G1 X150.014 Y81.04 E70.54152
G1 X150.635 Y81.159 E70.56255
G1 X151.235 Y81.356 E70.58356
G1 X151.807 Y81.627 E70.60461
G1 X152.339 Y81.967 E70.62561
G1 X152.919 Y82.464 E70.65101
G1 X153.036 Y82.581 E70.65652
G1 X153.453 Y83.056 E70.67754
G1 X153.808 Y83.579 E70.69856
G1 X154.094 Y84.143 E70.7196
G1 X154.306 Y84.738 E70.74061
G1 X154.442 Y85.356 E70.76165
G1 X154.5 Y86.117 E70.78704
G1 X154.5 Y131.883 E72.30922
G1 X154.46 Y132.514 E72.33025
G1 X154.341 Y133.135 E72.35128
G1 X154.144 Y133.735 E72.37228
G1 X153.873 Y134.307 E72.39334
G1 X153.533 Y134.839 E72.41433
G1 X153.036 Y135.419 E72.43974
G1 X152.919 Y135.536 E72.44524
G1 X152.444 Y135.953 E72.46627
G1 X151.921 Y136.308 E72.48729
G1 X151.357 Y136.594 E72.50832
G1 X150.762 Y136.806 E72.52933
